X:985
T:Fox on the Prowl, The
R:reel
C:Vincent Broderick
Z:transcribed by Dave Marshall
M:C|
K:D
|: d2fd eA (3AAA | BAFA BAFA | ABde faaf | g2fg edBc |
d2fd eA (3AAA | BAFA BAFA | ABde faaf | edef d4 :|
|: faaf d3e | faaf eA (3AAA | BAFA defa | b2af gee2 |
b~f3 afec | d2fd efdA | FAAF ABdf | edef d4 :|
